X: 41702
T: Valhalla
R: barndance
M: 4/4
K: Dmajor
A3A B2 AF|EF D2 D2 dc|B3d B2 AF|AB E2 E2 DE|
F2 dc B3B|AF ED B,2 A,2-|A,B, DE F2 ED|1 D3D DE FG:|2 D3D DE FA ]|
|:B2 AF A2 AB|de f2 f2 ed|fa b2 ba fd|e6 ab|
f2 ed B2 dB|AF ED B,2 A,2-|A,B, DE F2 ED|D3D DE FA:|

